X: 12007
T: Eonach Mhic Coilín
R: reel
M: 4/4
K: Edorian
BE~E2 DEGA|BE~E2 D2GA|BE~E2 DEGA|1 BedB A2GA:|2 BedB ADFA||
Beed BAGA|(3Bcd ef gfed|Beed BAGA|BedB A2GA|
Beed BAGA|(3Bcd ef g2fg|e3f edBA|BedB ADFA||

